packages/gestalt-icons-android/vr-theme/ic_vr_hand-pointing_gestalt.svg

<svg width="24" height="24" viewBox="0 0 24 24" fill="none" xmlns="http://www.w3.org/2000/svg">
<path fill-rule="evenodd" clip-rule="evenodd" d="M5.39316 3.179C4.97331 3.4214 4.81839 3.95116 5.04147 4.38158L10.2253 14.3832L4.43257 14.5238C3.48818 14.5467 2.67176 15.189 2.42726 16.1015L2.36734 16.3251C2.36087 16.3492 2.37616 16.3738 2.40066 16.3786L6.16785 17.1236C6.64331 17.2176 7.10319 17.378 7.53401 17.6L11.1829 19.4805C13.089 20.4629 15.3639 20.4086 17.221 19.3363L18.838 18.4028L18.8579 18.3912L18.8639 18.3876L19.7182 17.8945C21.5595 16.8314 22.3211 14.5636 21.4946 12.6046L20.0394 9.15544L19.7327 8.62427C19.3637 7.98513 18.5812 7.73142 17.9178 8.00743L17.2522 8.28437L16.7791 7.74036C16.2846 7.17171 15.4399 7.01485 14.7634 7.40547C14.5876 7.50692 14.44 7.635 14.321 7.78098L13.8055 8.41308L13.0827 8.0352C12.6084 7.78723 12.0255 7.78155 11.5314 8.06679C11.3938 8.14622 11.2737 8.24183 11.1711 8.34929L10.2882 9.27403L6.61232 3.47861C6.35194 3.06809 5.81416 2.93593 5.39316 3.179ZM3.2658 5.3019C2.55069 3.92215 3.04731 2.22397 4.39316 1.44695C5.7427 0.667791 7.46657 1.09144 8.30123 2.40737L10.7259 6.23012C11.5532 5.81687 12.4728 5.75149 13.3076 5.98492C13.4495 5.87113 13.6016 5.76683 13.7634 5.67342C15.0798 4.91335 16.6746 5.07732 17.7999 5.96294C19.2115 5.6822 20.7051 6.3085 21.4648 7.62427L21.8337 8.26328L23.3373 11.8272C24.5559 14.7155 23.433 18.0591 20.7182 19.6265L19.864 20.1197L19.838 20.1348L18.221 21.0684C15.7745 22.4809 12.7777 22.5524 10.2667 21.2583L6.6178 19.3778C6.35356 19.2416 6.07149 19.1433 5.77987 19.0856L2.01268 18.3406C0.853228 18.1114 0.129586 16.9491 0.435485 15.8075L0.495406 15.5839C0.969533 13.8144 2.55272 12.5688 4.38407 12.5243L6.97656 12.4615L3.2658 5.3019Z" fill="black"/>
</svg>

<svg xmlns="http://www.w3.org/2000/svg" width="24" height="24"><path d="M5.4 3.18a.9.9 0 0 0-.36 1.2l5.19 10-5.8.14c-.94.03-1.76.67-2 1.58l-.06.23q0 .03.03.05l3.77.74q.71.15 1.36.48l3.65 1.88a6.3 6.3 0 0 0 6.04-.14l1.62-.94h.02v-.01l.86-.5a4.2 4.2 0 0 0 1.77-5.29l-1.45-3.44-.3-.54a1.45 1.45 0 0 0-1.82-.61l-.67.27-.47-.54a1.6 1.6 0 0 0-2.46.04l-.51.63-.73-.37a1.6 1.6 0 0 0-1.9.3l-.9.93-3.67-5.8a.9.9 0 0 0-1.22-.3M3.26 5.3A2.9 2.9 0 0 1 8.3 2.4l2.43 3.83a3.6 3.6 0 0 1 2.58-.25 3.6 3.6 0 0 1 4.49-.02c1.41-.28 2.9.35 3.66 1.66l.37.64 1.5 3.57a6.2 6.2 0 0 1-2.61 7.8l-.86.49-.02.01-1.62.94a8.3 8.3 0 0 1-7.95.19l-3.65-1.88a3 3 0 0 0-.84-.3l-3.77-.74a2.04 2.04 0 0 1-1.57-2.53l.06-.23a4.1 4.1 0 0 1 3.88-3.06l2.6-.06z"/></svg>
